svgs/thin/hand-back-point-right.svg

<svg xmlns="http://www.w3.org/2000/svg" viewBox="0 0 512 512"><!--! Font Awesome Pro 6.3.0 by @fontawesome - https://fontawesome.com License - https://fontawesome.com/license (Commercial License) Copyright 2023 Fonticons, Inc. --><path d="M0 348.9V226.3c0-21.75 5.5-43.38 15.88-62.53l34.44-63.41C62.47 77.94 85.88 64 111.4 64h77.44c21.22 0 41.03 9.5 54.31 26.09l11.06 13.84c1.19 1.471 1.768 3.233 1.768 4.987c0 4.256-3.424 8.008-8.018 8.008c-2.35 0-4.674-1.026-6.249-2.995L230.7 100.1C220.5 87.31 205.2 80 188.9 80H111.4c-19.66 0-37.72 10.72-47.06 28L29.94 171.4C20.81 188.2 16 207.2 16 226.3v122.6C16 412.4 67.63 464 131.1 464h102.8C254.9 464 272 446.9 272 425.8v-15.28c0-.0313-.25-2.312-.25-2.312c-.049-.3202-.0728-.64-.0728-.9579c0-3.126 2.296-6.058 5.417-7.136C292.9 394.7 304 379.9 304 364.3v-15.38c0-14.78-5.526-17.63-5.526-22.65c0-2.65 1.305-5.213 3.713-6.729C313.3 312.5 320 300.4 320 287.4V278.8c0-19.47-11.99-23.64-11.99-30.78C308 244.5 310.7 240 316 240H456c22.06 0 40-17.94 40-40S478.1 160 456 160h-288C163.6 160 160 156.4 160 152S163.6 144 168 144h287.1C486.9 144 512 169.1 512 199.1S486.9 256 456 256h-125.1C334.2 263.1 336 270.9 336 278.8v8.594c0 16.22-7.188 31.28-19.5 41.5C318.8 335 320 341.7 320 348.9v15.38c0 20.69-12.62 39.56-32 48.66v12.88C288 455.7 263.7 480 233.8 480H131.1C58.78 480 0 421.2 0 348.9z"/></svg>

<svg xmlns="http://www.w3.org/2000/svg" viewBox="0 0 512 512"><!-- Font Awesome Pro 6.0.0-alpha2 by @fontawesome - https://fontawesome.com License - https://fontawesome.com/license (Commercial License) --><path d="M0 348.938V226.312C0 204.562 5.5 182.937 15.875 163.781L50.313 100.375C62.469 77.938 85.875 64 111.438 64H188.875C210.094 64 229.906 73.5 243.188 90.094L254.25 103.938C255.44 105.408 256.018 107.171 256.018 108.924C256.018 113.18 252.594 116.932 247.999 116.932C245.649 116.932 243.325 115.907 241.75 113.938L230.688 100.094C220.469 87.312 205.219 80 188.875 80H111.438C91.781 80 73.719 90.719 64.375 108L29.938 171.406C20.812 188.219 16 207.219 16 226.312V348.937C16 412.375 67.625 464 131.062 464H233.844C254.875 464 272 446.875 272 425.844V410.562C272 410.531 271.75 408.25 271.75 408.25C271.701 407.93 271.677 407.61 271.677 407.292C271.677 404.166 273.974 401.234 277.094 400.156C292.938 394.656 304 379.906 304 364.312V348.937C304 334.153 298.474 331.303 298.474 326.291C298.474 323.642 299.779 321.078 302.187 319.562C313.344 312.469 320 300.438 320 287.375V278.781C320 259.314 308.014 255.137 308.014 247.996C308.014 244.527 310.707 240 316.031 240H456C478.062 240 496 222.062 496 200S478.062 160 456 160H168C163.594 160 160 156.406 160 152S163.594 144 168 144H456C486.875 144 512 169.125 512 200S486.875 256 456 256H330.875C334.219 263.125 336 270.875 336 278.781V287.375C336 303.594 328.812 318.656 316.5 328.875C318.812 335 320 341.688 320 348.938V364.313C320 385 307.375 403.875 288 412.969V425.844C288 455.719 263.719 480 233.844 480H131.062C58.781 480 0 421.219 0 348.938Z"/></svg>
